sources/design/Outline/ു.svg

<svg:svg xmlns:cc="http://creativecommons.org/ns#" xmlns:dc="http://purl.org/dc/elements/1.1/" xmlns:inkscape="http://www.inkscape.org/namespaces/inkscape" xmlns:rdf="http://www.w3.org/1999/02/22-rdf-syntax-ns#" xmlns:sodipodi="http://sodipodi.sourceforge.net/DTD/sodipodi-0.dtd" xmlns:svg="http://www.w3.org/2000/svg" xml:space="preserve" width="1000" height="1000" version="1.1" style="clip-rule:evenodd;fill-rule:evenodd;image-rendering:optimizeQuality;shape-rendering:geometricPrecision;text-rendering:geometricPrecision" viewBox="0 0 1000 1000" id="svg10" sodipodi:docname="ു.svg" inkscape:version="1.0.2 (e86c870879, 2021-01-15)"><svg:metadata id="metadata14"><rdf:RDF><cc:Work rdf:about=""><dc:format>image/svg+xml</dc:format><dc:type rdf:resource="http://purl.org/dc/dcmitype/StillImage" /><dc:title /></cc:Work></rdf:RDF></svg:metadata><sodipodi:namedview pagecolor="#ffffff" bordercolor="#666666" borderopacity="1" objecttolerance="10" gridtolerance="10" guidetolerance="10" inkscape:pageopacity="0" inkscape:pageshadow="2" inkscape:window-width="1920" inkscape:window-height="1007" id="namedview12" showgrid="false" inkscape:zoom="1.5936404" inkscape:cx="267.975" inkscape:cy="142.18974" inkscape:window-x="1920" inkscape:window-y="0" inkscape:window-maximized="1" inkscape:current-layer="svg10" showguides="true" inkscape:guide-bbox="true" inkscape:document-rotation="0" inkscape:snap-object-midpoints="false" inkscape:snap-page="false" inkscape:pagecheckerboard="0"><sodipodi:guide position="0,1000" orientation="0,1" id="guide16" inkscape:label="" inkscape:locked="true" inkscape:color="rgb(0,0,255)" /><sodipodi:guide position="1763.3122,2036.1693" orientation="1000,0" id="guide18" /><sodipodi:guide position="0,200" orientation="0,1" id="guide20" inkscape:label="base" inkscape:locked="true" inkscape:color="rgb(0,0,255)" /><inkscape:grid type="xygrid" id="grid24" originx="-473.37552" originy="-489.69235" /><sodipodi:guide position="0,0" orientation="0,1" id="guide34" inkscape:label="bottom" inkscape:locked="true" inkscape:color="rgb(0,0,255)" /><sodipodi:guide position="225.05109,1693.3186" orientation="0,1" id="guide44" inkscape:label="" inkscape:locked="false" inkscape:color="rgb(0,0,255)" /><sodipodi:guide position="0,900" orientation="0,1" id="guide46" inkscape:label="" inkscape:locked="true" inkscape:color="rgb(0,0,255)" /><sodipodi:guide position="333.98882,403.94716" orientation="-1,0" id="guide841" inkscape:label="width" inkscape:locked="false" inkscape:color="rgb(0,0,255)" /><sodipodi:guide position="0,1000" orientation="0,1000" id="guide860" /><sodipodi:guide position="1000,1000" orientation="1000,0" id="guide862" /><sodipodi:guide position="1000,0" orientation="0,-1000" id="guide864" /><sodipodi:guide position="-1.2128236,854.61494" orientation="-1000,0" id="guide866" /></sodipodi:namedview>
 <svg:defs id="defs4"><inkscape:path-effect effect="fillet_chamfer" id="path-effect857" is_visible="true" lpeversion="1" satellites_param="F,0,0,1,0,0,0,1 @ F,0,0,1,0,0,0,1 @ F,0,0,1,0,0,0,1 @ F,0,0,1,0,0,0,1 @ F,0,0,1,0,0,0,1 @ F,0,0,1,0,0,0,1 @ F,0,0,1,0,0,0,1 @ F,0,0,1,0,0,0,1 | F,0,0,1,0,16.592345,0,1 @ F,0,0,1,0,0,0,1 @ F,0,0,1,0,0,0,1 @ F,0,0,1,0,0,0,1 @ F,0,0,1,0,0,0,1 @ F,0,0,1,0,0,0,1 @ F,0,0,1,0,0,0,1 @ F,0,0,1,0,0,0,1 @ F,0,0,1,0,0,0,1 @ F,0,0,1,0,0,0,1 @ F,0,0,1,0,0,0,1 @ F,0,0,1,0,0,0,1 @ F,0,0,1,0,0,0,1 @ F,0,0,1,0,0,0,1 @ F,0,0,1,0,0,0,1 @ F,0,0,1,0,0,0,1 @ F,0,0,1,0,0,0,1 @ F,0,0,1,0,0,0,1 @ F,0,0,1,0,15.19403,0,1" unit="px" method="auto" mode="F" radius="0" chamfer_steps="1" flexible="false" use_knot_distance="true" apply_no_radius="true" apply_with_radius="true" only_selected="true" hide_knots="false" /><inkscape:path-effect effect="spiro" id="path-effect864" is_visible="true" lpeversion="1" /><inkscape:path-effect effect="spiro" id="path-effect860" is_visible="true" lpeversion="1" /><inkscape:path-effect effect="spiro" id="path-effect856" is_visible="true" lpeversion="1" /><inkscape:path-effect effect="spiro" id="path-effect858" is_visible="true" lpeversion="1" /><inkscape:path-effect effect="spiro" id="path-effect854" is_visible="true" lpeversion="1" />
  <svg:style type="text/css" id="style2">
   
    .fil0 {fill:#EF7F1A;fill-rule:nonzero}
   
  </svg:style>
 <inkscape:path-effect effect="spiro" id="path-effect1214" is_visible="true" lpeversion="1" /><inkscape:path-effect effect="spiro" id="path-effect1195" is_visible="true" lpeversion="1" /><inkscape:path-effect effect="spiro" id="path-effect992" is_visible="true" lpeversion="1" /><inkscape:path-effect effect="spiro" id="path-effect287" is_visible="true" lpeversion="1" /><inkscape:path-effect effect="spiro" id="path-effect1032" is_visible="true" lpeversion="1" /><inkscape:path-effect effect="spiro" id="path-effect1218" is_visible="true" lpeversion="1" /><inkscape:path-effect effect="spiro" id="path-effect309" is_visible="true" lpeversion="1" /><inkscape:path-effect effect="spiro" id="path-effect1525" is_visible="true" lpeversion="1" /><inkscape:path-effect effect="spiro" id="path-effect1343" is_visible="true" lpeversion="1" /></svg:defs>
 
<svg:g id="path854"><svg:path style="color:#000000;clip-rule:nonzero;fill:#1a5fb4;fill-rule:nonzero;stroke-linecap:round;stroke-linejoin:round;-inkscape-stroke:none;paint-order:fill stroke markers;shape-rendering:auto" d="M 115.53125,-25.382812 C 94.950151,-25.220808 75.046519,-9.939844 70.914062,10.234375 L 44.519531,139.0957 C 39.57714,163.22394 56.054021,186.31558 78.039062,192.13867 C 103.98887,199.0119 128.09392,214.85868 144.41797,235.95117 C 166.26065,264.17435 176.11991,303.32518 176.64648,343.22069999999997 C 177.78444,429.43730999999997 139.26081,515.73578 105.58984,606.30078 C 94.60023799999999,635.85959 84.527197,665.75211 75.119141,695.8515600000001 C 50.703579,710.95915 29.467518999999996,730.9403100000001 12.919922,754.46289 C -15.856584999999999,795.36899 -28.811822999999997,844.36809 -29.757812,892.29687 C -30.744569000000002,942.29111 -18.617448000000003,994.40187 12.361328,1037.0430000000001 C 31.398332,1063.2467000000001 56.882225,1084.7396 86.666016,1098.5352 C 116.49463,1112.3514 149.9513,1118.073 183.01562,1114.0801000000001 C 234.35842000000002,1107.8799000000001 279.27218,1079.0898000000002 310.32031,1040.5488 C 341.28058,1002.1169 358.60083000000003,954.67291 362.44727,906.5078100000001 C 365.96642,862.44101 358.28208,816.6481500000001 336.33398,776.48242 C 316.4187,740.0368100000001 285.64134,710.3345800000001 248.82422,691.4902300000001 C 247.46350999999999,665.9405500000001 248.40496,640.2567900000001 251.91210999999998,614.91992 C 259.33774999999997,561.2745 278.07219,507.51819000000006 295.67773,451.31836000000004 C 313.30144,395.06055000000003 330.00194,335.05402000000004 329.61133,271.41406000000006 C 329.14321,195.14661 302.7566,118.73268 251.70508,60.560547 C 218.76454,23.025499 176.51699,-5.802062 129.70312,-22.953125 C 125.06691000000001,-24.651683 120.28073,-25.420198 115.53125000000001,-25.382812 L 115.53125,-25.382812 M 125.97461,40.425781 C 156.61999,54.430002 184.45624,74.895914 206.60742,100.13672 C 247.11508999999998,146.29435 269.22943,209.24481 269.61328,271.78319999999997 C 269.93690999999995,324.50985 255.58563999999998,378.59319999999997 238.42186999999998,433.38280999999995 C 221.23995,488.2303999999999 201.0086,545.06905 192.47851999999997,606.69336 C 187.55307999999997,642.27646 186.79476999999997,678.40366 190.22265999999996,714.16211 A 30.003,30.003 0.0 0,0 209.01171999999997,739.1796899999999 C 240.28050999999996,751.5993799999999 267.54826999999995,775.7273799999999 283.68163999999996,805.25195 C 299.17054999999993,833.5971499999999 305.33453999999995,867.97475 302.63866999999993,901.7324199999999 C 299.6900999999999,938.65441 286.1842899999999,974.8683 263.59569999999997,1002.9082 C 241.29102999999998,1030.5956999999999 208.91151999999997,1050.5158 175.82226999999995,1054.5117 C 154.45778999999993,1057.0917 131.80109999999996,1053.3177 111.88280999999995,1044.0918 C 91.91970599999995,1034.8451 74.08899199999995,1019.9282999999999 60.90234399999995,1001.7773 C 39.377384,972.14906 29.454464,932.79693 30.230469,893.48047 C 30.976763,855.6693 41.428882,818.2181 61.994141,788.98437 C 75.517221,769.76118 93.730386,753.57521 114.4082,742.40234 A 30.003,30.003 0.0 0,0 128.83983999999998,724.76562 C 138.86214999999999,691.92875 149.86586999999997,659.39113 161.83007999999998,627.21094 C 194.44329,539.49099 238.01297,446.4046000000001 236.64061999999998,342.42969000000005 C 235.99400999999997,293.43890000000005 224.43134999999998,241.30505000000005 191.86719,199.22852000000006 C 169.85736,170.78937000000005 139.73017,149.60184000000007 105.98437999999999,138.02734000000007 L 125.97461,40.425781 M 164.41602,781.05859 C 138.43835,782.05043 113.34186,791.7161 93.371094,808.81055 C 70.525948,828.36539 56.15352,856.15863 53.607422,886.23828 C 51.001485,917.02488 61.013717,947.5113200000001 81.128906,970.8144500000001 C 101.22529,994.0958 129.77686,1008.3522 160.33398,1010.6348 C 193.00597,1013.0753000000001 225.35088000000002,1001.6229000000001 249.12891,978.91211 C 272.9318,956.17751 285.95153,924.22137 284.57031,891.2167999999999 C 283.36888,862.5080899999999 271.37411000000003,835.3629999999999 251.17383,815.0839799999999 C 230.99076000000002,794.8222499999999 204.03226,782.8120899999999 175.5918,781.1679699999999 C 171.85714000000002,780.9520699999998 168.12711000000002,780.9168999999998 164.41602,781.0585899999999 L 164.41602,781.05859 M 166.83398,841.03711 C 168.60947,840.95781 170.37879,840.96721 172.12891,841.06831 C 185.50012999999998,841.84129 199.29205,848.01914 208.66602,857.42964 C 218.02276,866.8228499999999 224.07331,880.59035 224.62305,893.72651 C 225.24858,908.67392 218.59135,925.1089099999999 207.6875,935.52339 C 196.75877,945.9616199999999 179.99136,951.9352799999999 164.80273,950.8007299999999 C 150.52489,949.7342199999999 135.82859,942.3600899999999 126.54687999999999,931.60737 C 117.28396,920.8764299999999 112.20643999999999,905.3118599999999 113.39257999999998,891.29878 C 114.55349999999999,877.58362 121.84216999999998,863.41643 132.38671999999997,854.39057 C 141.63193999999996,846.47691 154.40560999999997,841.59232 166.83397999999997,841.03706 L 166.83398,841.03711" id="path6288" /></svg:g></svg:svg>

<svg:svg xmlns:cc="http://creativecommons.org/ns#" xmlns:dc="http://purl.org/dc/elements/1.1/" xmlns:inkscape="http://www.inkscape.org/namespaces/inkscape" xmlns:rdf="http://www.w3.org/1999/02/22-rdf-syntax-ns#" xmlns:sodipodi="http://sodipodi.sourceforge.net/DTD/sodipodi-0.dtd" xmlns:svg="http://www.w3.org/2000/svg" xml:space="preserve" width="1000" height="1000" version="1.1" style="clip-rule:evenodd;fill-rule:evenodd;image-rendering:optimizeQuality;shape-rendering:geometricPrecision;text-rendering:geometricPrecision" viewBox="0 0 1000 1000" id="svg10" sodipodi:docname="ു.svg" inkscape:version="1.0.2 (e86c870879, 2021-01-15)"><svg:metadata id="metadata14"><rdf:RDF><cc:Work rdf:about=""><dc:format>image/svg+xml</dc:format><dc:type rdf:resource="http://purl.org/dc/dcmitype/StillImage" /><dc:title /></cc:Work></rdf:RDF></svg:metadata><sodipodi:namedview pagecolor="#ffffff" bordercolor="#666666" borderopacity="1" objecttolerance="10" gridtolerance="10" guidetolerance="10" inkscape:pageopacity="0" inkscape:pageshadow="2" inkscape:window-width="1920" inkscape:window-height="1007" id="namedview12" showgrid="false" inkscape:zoom="1.5936404" inkscape:cx="267.975" inkscape:cy="142.18974" inkscape:window-x="1920" inkscape:window-y="0" inkscape:window-maximized="1" inkscape:current-layer="svg10" showguides="true" inkscape:guide-bbox="true" inkscape:document-rotation="0" inkscape:snap-object-midpoints="false" inkscape:snap-page="false" inkscape:pagecheckerboard="0"><sodipodi:guide position="0,1000" orientation="0,1" id="guide16" inkscape:label="" inkscape:locked="true" inkscape:color="rgb(0,0,255)" /><sodipodi:guide position="1763.3122,2036.1693" orientation="1000,0" id="guide18" /><sodipodi:guide position="0,200" orientation="0,1" id="guide20" inkscape:label="base" inkscape:locked="true" inkscape:color="rgb(0,0,255)" /><inkscape:grid type="xygrid" id="grid24" originx="-473.37552" originy="-489.69235" /><sodipodi:guide position="0,0" orientation="0,1" id="guide34" inkscape:label="bottom" inkscape:locked="true" inkscape:color="rgb(0,0,255)" /><sodipodi:guide position="225.05109,1693.3186" orientation="0,1" id="guide44" inkscape:label="" inkscape:locked="false" inkscape:color="rgb(0,0,255)" /><sodipodi:guide position="0,900" orientation="0,1" id="guide46" inkscape:label="" inkscape:locked="true" inkscape:color="rgb(0,0,255)" /><sodipodi:guide position="333.98882,403.94716" orientation="-1,0" id="guide841" inkscape:label="width" inkscape:locked="false" inkscape:color="rgb(0,0,255)" /><sodipodi:guide position="0,1000" orientation="0,1000" id="guide860" /><sodipodi:guide position="1000,1000" orientation="1000,0" id="guide862" /><sodipodi:guide position="1000,0" orientation="0,-1000" id="guide864" /><sodipodi:guide position="-1.2128236,854.61494" orientation="-1000,0" id="guide866" /></sodipodi:namedview>
 <svg:defs id="defs4"><inkscape:path-effect effect="fillet_chamfer" id="path-effect857" is_visible="true" lpeversion="1" satellites_param="F,0,0,1,0,0,0,1 @ F,0,0,1,0,0,0,1 @ F,0,0,1,0,0,0,1 @ F,0,0,1,0,0,0,1 @ F,0,0,1,0,0,0,1 @ F,0,0,1,0,0,0,1 @ F,0,0,1,0,0,0,1 @ F,0,0,1,0,0,0,1 | F,0,0,1,0,16.592345,0,1 @ F,0,0,1,0,0,0,1 @ F,0,0,1,0,0,0,1 @ F,0,0,1,0,0,0,1 @ F,0,0,1,0,0,0,1 @ F,0,0,1,0,0,0,1 @ F,0,0,1,0,0,0,1 @ F,0,0,1,0,0,0,1 @ F,0,0,1,0,0,0,1 @ F,0,0,1,0,0,0,1 @ F,0,0,1,0,0,0,1 @ F,0,0,1,0,0,0,1 @ F,0,0,1,0,0,0,1 @ F,0,0,1,0,0,0,1 @ F,0,0,1,0,0,0,1 @ F,0,0,1,0,0,0,1 @ F,0,0,1,0,0,0,1 @ F,0,0,1,0,0,0,1 @ F,0,0,1,0,15.19403,0,1" unit="px" method="auto" mode="F" radius="0" chamfer_steps="1" flexible="false" use_knot_distance="true" apply_no_radius="true" apply_with_radius="true" only_selected="true" hide_knots="false" /><inkscape:path-effect effect="spiro" id="path-effect864" is_visible="true" lpeversion="1" /><inkscape:path-effect effect="spiro" id="path-effect860" is_visible="true" lpeversion="1" /><inkscape:path-effect effect="spiro" id="path-effect856" is_visible="true" lpeversion="1" /><inkscape:path-effect effect="spiro" id="path-effect858" is_visible="true" lpeversion="1" /><inkscape:path-effect effect="spiro" id="path-effect854" is_visible="true" lpeversion="1" />
  <svg:style type="text/css" id="style2">
   
    .fil0 {fill:#EF7F1A;fill-rule:nonzero}
   
  </svg:style>
 <inkscape:path-effect effect="spiro" id="path-effect1214" is_visible="true" lpeversion="1" /><inkscape:path-effect effect="spiro" id="path-effect1195" is_visible="true" lpeversion="1" /><inkscape:path-effect effect="spiro" id="path-effect992" is_visible="true" lpeversion="1" /><inkscape:path-effect effect="spiro" id="path-effect287" is_visible="true" lpeversion="1" /><inkscape:path-effect effect="spiro" id="path-effect1032" is_visible="true" lpeversion="1" /><inkscape:path-effect effect="spiro" id="path-effect1218" is_visible="true" lpeversion="1" /><inkscape:path-effect effect="spiro" id="path-effect309" is_visible="true" lpeversion="1" /><inkscape:path-effect effect="spiro" id="path-effect1525" is_visible="true" lpeversion="1" /><inkscape:path-effect effect="spiro" id="path-effect1343" is_visible="true" lpeversion="1" /></svg:defs>
 
<svg:g id="path854"><svg:path style="color:#000000;clip-rule:nonzero;fill:#1a5fb4;fill-rule:nonzero;stroke-linecap:round;stroke-linejoin:round;-inkscape-stroke:none;shape-rendering:auto" d="M 115.53125,-25.382812 C 94.950151,-25.220808 75.046519,-9.939844 70.914062,10.234375 L 44.519531,139.0957 c -4.942391,24.12824 11.53449,47.21988 33.519531,53.04297 25.949808,6.87323 50.054858,22.72001 66.378908,43.8125 21.84268,28.22318 31.70194,67.37401 32.22851,107.26953 1.13796,86.21661 -37.38567,172.51508 -71.05664,263.08008 -10.989602,29.55881 -21.062643,59.45133 -30.470699,89.55078 -24.415562,15.10759 -45.651622,35.08875 -62.199219,58.61133 -28.776507,40.9061 -41.731745,89.9052 -42.677734,137.83398 -0.986757,49.99424 11.140364,102.105 42.11914,144.74613 19.037004,26.2037 44.520897,47.6966 74.304688,61.4922 29.828614,13.8162 63.285284,19.5378 96.349604,15.5449 51.3428,-6.2002 96.25656,-34.9903 127.30469,-73.5313 30.96027,-38.4319 48.28052,-85.87589 52.12696,-134.04099 3.51915,-44.0668 -4.16519,-89.85966 -26.11329,-130.02539 -19.91528,-36.44561 -50.69264,-66.14784 -87.50976,-84.99219 -1.36071,-25.54968 -0.41926,-51.23344 3.08789,-76.57031 7.42564,-53.64542 26.16008,-107.40173 43.76562,-163.60156 17.62371,-56.25781 34.32421,-116.26434 33.9336,-179.9043 C 329.14321,195.14661 302.7566,118.73268 251.70508,60.560547 218.76454,23.025499 176.51699,-5.802062 129.70312,-22.953125 c -4.63621,-1.698558 -9.42239,-2.467073 -14.17187,-2.429687 z m 10.44336,65.808593 c 30.64538,14.004221 58.48163,34.470133 80.63281,59.710939 40.50767,46.15763 62.62201,109.10809 63.00586,171.64648 0.32363,52.72665 -14.02764,106.81 -31.19141,161.59961 -17.18192,54.84759 -37.41327,111.68624 -45.94335,173.31055 -4.92544,35.5831 -5.68375,71.7103 -2.25586,107.46875 a 30.003,30.003 0 0 0 18.78906,25.01758 c 31.26879,12.41969 58.53655,36.54769 74.66992,66.07226 15.48891,28.3452 21.6529,62.7228 18.95703,96.48047 -2.94857,36.92199 -16.45438,73.13588 -39.04297,101.17578 -22.30467,27.6875 -54.68418,47.6076 -87.77343,51.6035 -21.36448,2.58 -44.02117,-1.194 -63.93946,-10.4199 -19.963104,-9.2467 -37.793818,-24.1635 -50.980466,-42.3145 C 39.377384,972.14906 29.454464,932.79693 30.230469,893.48047 30.976763,855.6693 41.428882,818.2181 61.994141,788.98437 75.517221,769.76118 93.730386,753.57521 114.4082,742.40234 a 30.003,30.003 0 0 0 14.43164,-17.63672 c 10.02231,-32.83687 21.02603,-65.37449 32.99024,-97.55468 32.61321,-87.71995 76.18289,-180.80634 74.81054,-284.78125 -0.64661,-48.99079 -12.20927,-101.12464 -44.77343,-143.20117 -22.00983,-28.43915 -52.13702,-49.62668 -85.88281,-61.20118 z m 38.44141,740.632809 c -25.97767,0.99184 -51.07416,10.65751 -71.044926,27.75196 -22.845146,19.55484 -37.217574,47.34808 -39.763672,77.42773 -2.605937,30.7866 7.406295,61.27304 27.521484,84.57617 20.096384,23.28135 48.647954,37.53775 79.205074,39.82035 32.67199,2.4405 65.0169,-9.0119 88.79493,-31.72269 23.80289,-22.7346 36.82262,-54.69074 35.4414,-87.69531 -1.20143,-28.70871 -13.1962,-55.8538 -33.39648,-76.13282 -20.18307,-20.26173 -47.14157,-32.27189 -75.58203,-33.91601 -3.73466,-0.2159 -7.46469,-0.25107 -11.17578,-0.10938 z m 2.41796,59.97852 c 1.77549,-0.0793 3.54481,-0.0699 5.29493,0.0312 13.37122,0.77298 27.16314,6.95083 36.53711,16.36133 9.35674,9.39321 15.40729,23.16071 15.95703,36.29687 0.62553,14.94741 -6.0317,31.3824 -16.93555,41.79688 -10.92873,10.43823 -27.69614,16.41189 -42.88477,15.27734 -14.27784,-1.06651 -28.97414,-8.44064 -38.25585,-19.19336 -9.26292,-10.73094 -14.34044,-26.29551 -13.1543,-40.30859 1.16092,-13.71516 8.44959,-27.88235 18.99414,-36.90821 9.24522,-7.91366 22.01889,-12.79825 34.44726,-13.35351 z" id="path6276" /></svg:g></svg:svg>
